X: 20886
T: Jonny's Funky Fiddle
R: reel
M: 4/4
K: Emajor
Be (3eee g2 fe|cfgf agfe|Be (3eee g2 fe|cefg efec|
Be (3eee g2 fe|cfgf agga|bg (3ggg af (3fff|fedf e3 e:|
|:be (3eee fece|ce (3eee fece|be (3eee fece|afge fece|
be (3eee fece|ce (3eee fece|fa (3aaa ge (3eee|fedf e3 e:|

